icons/diff-added-16.svg

<svg xmlns="http://www.w3.org/2000/svg" width="16" height="16" viewBox="0 0 16 16">
  <defs/>
  <path d="M2.75,1 L13.25,1 C14.216,1 15,1.784 15,2.75 L15,13.25 C15,14.216 14.216,15 13.25,15 L2.75,15 C1.784,15 1,14.216 1,13.25 L1,2.75 C1,1.784 1.784,1 2.75,1 Z M13.25,2.5 L2.75,2.5 C2.612,2.5 2.5,2.612 2.5,2.75 L2.5,13.25 C2.5,13.388 2.612,13.5 2.75,13.5 L13.25,13.5 C13.388,13.5 13.5,13.388 13.5,13.25 L13.5,2.75 C13.5,2.612 13.388,2.5 13.25,2.5 Z M8,4 C8.414,4 8.75,4.336 8.75,4.75 L8.75,7.25 L11.25,7.25 C11.664,7.25 12,7.586 12,8 C12,8.414 11.664,8.75 11.25,8.75 L8.75,8.75 L8.75,11.25 C8.75,11.664 8.414,12 8,12 C7.586,12 7.25,11.664 7.25,11.25 L7.25,8.75 L4.75,8.75 C4.336,8.75 4,8.414 4,8 C4,7.586 4.336,7.25 4.75,7.25 L7.25,7.25 L7.25,4.75 C7.25,4.336 7.586,4 8,4 Z"/>
</svg>

<svg xmlns="http://www.w3.org/2000/svg" width="16" height="16" viewBox="0 0 16 16"><path d="M2.75 1h10.5c.966 0 1.75.784 1.75 1.75v10.5A1.75 1.75 0 0113.25 15H2.75A1.75 1.75 0 011 13.25V2.75C1 1.784 1.784 1 2.75 1zm10.5 1.5H2.75a.25.25 0 00-.25.25v10.5c0 .138.112.25.25.25h10.5a.25.25 0 00.25-.25V2.75a.25.25 0 00-.25-.25zM8 4a.75.75 0 01.75.75v2.5h2.5a.75.75 0 010 1.5h-2.5v2.5a.75.75 0 01-1.5 0v-2.5h-2.5a.75.75 0 010-1.5h2.5v-2.5A.75.75 0 018 4z"/></svg>
